X: 1
T: Perth-shire Air
C:
R: air
S: printed page in the Concord Slow Scottish Session collection
Z: 2015 John Chambers <jc:trillian.mit.edu>
M: C
L: 1/8
K: D
(A>B) |\
"D"d2 "Em"(Be) "G"d>B | "D"A3 g "Bm"f>e | "F#m"a2 "Em"(ef) "A"e>d | "Bm"B3 a "F#m"a>g |
"D"f2 (af) "Em"e>d | "A"e "D"f3 A>B | "D"d2 "Em7"(Be) "G"d>B | "D"A4 :|
|: (a>f) |\
"A"e3 f "Em7"e>d | "Bm"B2 "F#m"A2 f>e | "F#m"a2 "Em"(ef) "A"e>d |
[1 "Bm"B3 a "D"a>f | "A"e3 f "Em7"e>d | "Bm"B2 "F#m"A2 A>B | "D"d2 "Em"(ef) "G"d>B | "D"A4 :|
[2 "Bm"B3 a "F#m"a>g | "D"f2 (af) "Em"e>d | "A"e2 "D"f2 A>B | "D"d2 "Em"(Be) "G"d>B | "D"A4 |]
